src/assets/svg/nodejs-logo.svg

<svg width="136" height="153" viewBox="0 0 136 153" fill="none" xmlns="http://www.w3.org/2000/svg">
<path d="M68 153C65.9311 153.001 63.8984 152.458 62.1065 151.426L43.3524 140.35C40.5535 138.787 41.9174 138.235 42.843 137.913C45.8198 136.995 48.6699 135.71 51.3273 134.088C51.5497 133.985 51.7947 133.941 52.0391 133.959C52.2835 133.977 52.5193 134.057 52.724 134.192L67.1346 142.732C67.4029 142.874 67.7019 142.948 68.0055 142.948C68.3091 142.948 68.608 142.874 68.8764 142.732L125.073 110.373C125.336 110.215 125.553 109.993 125.704 109.726C125.855 109.46 125.934 109.159 125.933 108.853V44.1226C125.933 43.8119 125.853 43.5064 125.7 43.2356C125.548 42.9647 125.328 42.7376 125.062 42.5762L68.8654 10.2436C68.6004 10.0947 68.3014 10.0164 67.9973 10.0164C67.6931 10.0164 67.3941 10.0947 67.1291 10.2436L10.9655 42.5871C10.6976 42.7452 10.4751 42.9696 10.3197 43.2386C10.1642 43.5076 10.081 43.8121 10.0782 44.1226V108.826C10.0789 109.131 10.161 109.431 10.316 109.694C10.4709 109.957 10.6932 110.174 10.96 110.323L26.373 119.197C34.7258 123.361 39.8415 118.454 39.8415 113.525V49.6416C39.8415 49.2068 40.0146 48.7899 40.3228 48.4824C40.6309 48.175 41.0489 48.0023 41.4847 48.0023H48.6051C49.0409 48.0023 49.4588 48.175 49.767 48.4824C50.0751 48.7899 50.2483 49.2068 50.2483 49.6416V113.531C50.2483 124.651 44.1795 131.017 33.6084 131.017C29.0479 131.096 24.559 129.879 20.6657 127.509L5.89355 119.055C4.10024 118.014 2.61223 116.521 1.57807 114.726C0.54392 112.931 -0.000198531 110.896 3.89531e-05 108.826V44.1226C-0.00529142 42.049 0.536526 40.0106 1.57104 38.2121C2.60556 36.4136 4.09633 34.9185 5.89355 33.8769L62.0955 1.50604C63.9059 0.517905 65.9364 0 68 0C70.0636 0 72.0941 0.517905 73.9045 1.50604L130.101 33.8769C131.894 34.9167 133.382 36.4076 134.418 38.2006C135.453 39.9936 135.998 42.0261 136 44.0953V108.826C135.997 110.896 135.451 112.93 134.416 114.724C133.381 116.519 131.893 118.012 130.101 119.055L73.9045 151.426C72.1092 152.46 70.0726 153.002 68 153V153Z" fill="#83CD29"/>
<path d="M58 87.3606C58 86.9266 58.1737 86.5104 58.483 86.2035C58.7923 85.8966 59.2118 85.7242 59.6491 85.7242H66.9438C67.3336 85.7255 67.7103 85.8637 68.0071 86.1143C68.304 86.3649 68.5018 86.7117 68.5654 87.0933C69.6649 94.4622 72.9631 98.1766 87.8768 98.1766C99.756 98.1766 104.819 95.5094 104.819 89.2532C104.819 85.6479 103.384 82.9698 84.9193 81.1753C69.4835 79.659 59.9405 76.2664 59.9405 64.0267C59.9405 52.7362 69.5329 46 85.612 46C103.681 46 112.625 52.2234 113.757 65.5758C113.774 65.7987 113.746 66.0228 113.672 66.2341C113.599 66.4455 113.483 66.6398 113.331 66.8049C113.179 66.97 112.994 67.1024 112.789 67.194C112.583 67.2856 112.361 67.3345 112.136 67.3375H104.791C104.423 67.3324 104.067 67.205 103.78 66.9757C103.493 66.7463 103.292 66.4282 103.208 66.0721C101.455 58.3214 97.1614 55.8452 85.6175 55.8452C72.6443 55.8452 71.1381 60.3287 71.1381 63.6886C71.1381 67.7575 72.9192 68.9466 90.4329 71.2429C107.765 73.5173 116 76.7354 116 88.8223C116 101.018 105.753 108 87.8823 108C63.1728 108.033 58 96.7912 58 87.3606V87.3606Z" fill="#83CD29"/>
</svg>

<svg width="136" height="153" fill="none" xmlns="http://www.w3.org/2000/svg"><path d="M68 153a11.798 11.798 0 0 1-5.894-1.574L43.352 140.35c-2.798-1.563-1.435-2.115-.509-2.437a37.492 37.492 0 0 0 8.484-3.825 1.441 1.441 0 0 1 1.397.104l14.41 8.54a1.862 1.862 0 0 0 1.742 0l56.197-32.359a1.771 1.771 0 0 0 .86-1.52v-64.73a1.803 1.803 0 0 0-.871-1.547L68.865 10.244a1.772 1.772 0 0 0-1.736 0L10.965 42.587a1.805 1.805 0 0 0-.887 1.536v64.703a1.718 1.718 0 0 0 .882 1.497l15.413 8.874c8.353 4.164 13.469-.743 13.469-5.672V49.642a1.637 1.637 0 0 1 1.643-1.64h7.12a1.645 1.645 0 0 1 1.643 1.64v63.889c0 11.12-6.069 17.486-16.64 17.486a24.09 24.09 0 0 1-12.942-3.508l-14.772-8.454a11.84 11.84 0 0 1-4.316-4.329 11.817 11.817 0 0 1-1.578-5.9V44.123a11.793 11.793 0 0 1 1.571-5.91 11.828 11.828 0 0 1 4.323-4.336L62.096 1.506a12.325 12.325 0 0 1 11.809 0l56.196 32.37a11.853 11.853 0 0 1 4.317 4.325A11.813 11.813 0 0 1 136 44.095v64.731a11.838 11.838 0 0 1-1.584 5.898 11.876 11.876 0 0 1-4.315 4.331l-56.197 32.371A11.807 11.807 0 0 1 68 153z" fill="#83CD29"/><path d="M58 87.36c0-.433.174-.85.483-1.156.31-.307.729-.48 1.166-.48h7.295c.39.001.766.14 1.063.39.297.25.495.598.558.98 1.1 7.368 4.398 11.083 19.312 11.083 11.879 0 16.942-2.668 16.942-8.924 0-3.605-1.435-6.283-19.9-8.078-15.435-1.516-24.978-4.909-24.978-17.148C59.94 52.737 69.532 46 85.612 46c18.069 0 27.013 6.223 28.145 19.576a1.618 1.618 0 0 1-.426 1.229 1.655 1.655 0 0 1-1.195.532h-7.345a1.657 1.657 0 0 1-1.011-.361 1.638 1.638 0 0 1-.572-.904c-1.753-7.75-6.047-10.227-17.59-10.227-12.974 0-14.48 4.484-14.48 7.844 0 4.068 1.781 5.258 19.295 7.554C107.765 73.517 116 76.735 116 88.823 116 101.017 105.753 108 87.882 108 63.172 108.033 58 96.791 58 87.36z" fill="#83CD29"/></svg>
